public/img/Editar.svg

<svg xmlns="http://www.w3.org/2000/svg" viewBox="0 0 486.35 486.21"><defs><style>.cls-1{fill:#fff}</style></defs><title>Editar</title><g id="Camada_2" data-name="Camada 2"><g id="Camada_1-2" data-name="Camada 1"><path class="cls-1" d="M467 86.33v332.76a67.12 67.12 0 0 1-67.12 67.12H67.12A67.12 67.12 0 0 1 0 419.09V86.33a67.12 67.12 0 0 1 67.12-67.12h332.76c1.62 0 3.22.06 4.81.18l-52.82 52.82H101.93a48.47 48.47 0 0 0-48.47 48.47v264.06a48.47 48.47 0 0 0 48.47 48.47h263.14a48.47 48.47 0 0 0 48.47-48.47V135.09l53.3-53.3c.16 1.5.16 3.01.16 4.54z"/><path class="cls-1" d="M483.45 28.94a9.34 9.34 0 0 1 0 13.53L456 69l-59.56 57.5-161.79 156.18a10 10 0 0 1-3.92 2.33l-40.22 12.7c-7.72 2.44-15-4.61-12.5-12.06l13.15-38.84a9.56 9.56 0 0 1 2.41-3.79L355.79 86.39 415 29.22 442.37 2.8a10.17 10.17 0 0 1 14 0z"/></g></g></svg>

<svg xmlns="http://www.w3.org/2000/svg" viewBox="0 0 486.35 486.21"><defs><style>.cls-1{fill:#fff;}</style></defs><title>Editar</title><g id="Camada_2" data-name="Camada 2"><g id="Camada_1-2" data-name="Camada 1"><path class="cls-1" d="M467,86.33V419.09a67.12,67.12,0,0,1-67.12,67.12H67.12A67.12,67.12,0,0,1,0,419.09V86.33A67.12,67.12,0,0,1,67.12,19.21H399.88c1.62,0,3.22.06,4.81.18L351.87,72.21H101.93a48.47,48.47,0,0,0-48.47,48.47V384.74a48.47,48.47,0,0,0,48.47,48.47H365.07a48.47,48.47,0,0,0,48.47-48.47V135.09l53.3-53.3C467,83.29,467,84.8,467,86.33Z"/><path class="cls-1" d="M483.45,28.94a9.34,9.34,0,0,1,0,13.53L456,69l-59.56,57.5L234.65,282.68a10,10,0,0,1-3.92,2.33l-40.22,12.7c-7.72,2.44-15-4.61-12.5-12.06l13.15-38.84a9.56,9.56,0,0,1,2.41-3.79L355.79,86.39,415,29.22,442.37,2.8a10.17,10.17,0,0,1,14,0Z"/></g></g></svg>
